source/img/energo/activity-2.1.svg

<svg width="134" height="134" viewBox="0 0 134 134" fill="none" xmlns="http://www.w3.org/2000/svg">
<g clip-path="url(#clip0)">
<path d="M15 131.5H8.5L25 96.5V44.5L35 18H42.5L51.5 44.5V96.5L15 131.5Z" stroke="white" stroke-width="3"/>
<path d="M25 97L59 131H66.5L52 97L25 70.5H52L25 44L51.5 44.5" stroke="white" stroke-width="3"/>
<path d="M24 98L51.5 70.5" stroke="white" stroke-width="3"/>
<path d="M52 45L25 69.5" stroke="white" stroke-width="3"/>
<path d="M55.5 47.5L73 65H55.5" stroke="white" stroke-width="3"/>
<path d="M19.5 47.5L2 65H19.5" stroke="white" stroke-width="3"/>
<path d="M55.5 75.5L73 93H55.5" stroke="white" stroke-width="3"/>
<path d="M19.5 75.5L2 93H19.5" stroke="white" stroke-width="3"/>
<path d="M65 93V97.5" stroke="white" stroke-width="3"/>
<path d="M65 65.5V70" stroke="white" stroke-width="3"/>
<path d="M5 65.5V70" stroke="white" stroke-width="3"/>
<path d="M5 92.5V97" stroke="white" stroke-width="3"/>
<path d="M71 93V97.5" stroke="white" stroke-width="3"/>
<path d="M71 65.5V70" stroke="white" stroke-width="3"/>
<path d="M11 65.5V70" stroke="white" stroke-width="3"/>
<path d="M11 92.5V97" stroke="white" stroke-width="3"/>
<path d="M82.7043 87.7253H77.8522L90.1691 61.5986V22.7817L97.6339 3H103.232L109.951 22.7817V61.5986L82.7043 87.7253Z" stroke="white" stroke-width="3"/>
<path d="M90.1691 61.9718L115.549 87.3521H121.148L110.324 61.9718L90.1691 42.1901H110.324L90.1691 22.4084L109.951 22.7817" stroke="white" stroke-width="3"/>
<path d="M89.4225 62.7184L109.951 42.1902" stroke="white" stroke-width="3"/>
<path d="M110.324 23.155L90.1691 41.4438" stroke="white" stroke-width="3"/>
<path d="M112.937 25.0212L126 38.0846H112.937" stroke="white" stroke-width="3"/>
<path d="M86.0634 25.0212L73 38.0846H86.0634" stroke="white" stroke-width="3"/>
<path d="M112.937 45.9226L126 58.986H112.937" stroke="white" stroke-width="3"/>
<path d="M86.0634 45.9226L73 58.986H86.0634" stroke="white" stroke-width="3"/>
<path d="M120.028 58.9858V62.345" stroke="white" stroke-width="3"/>
<path d="M120.028 38.4578V41.8169" stroke="white" stroke-width="3"/>
<path d="M75.2394 38.4578V41.8169" stroke="white" stroke-width="3"/>
<path d="M75.2394 58.6128V61.9719" stroke="white" stroke-width="3"/>
<path d="M124.507 58.9858V62.345" stroke="white" stroke-width="3"/>
<path d="M124.507 38.4578V41.8169" stroke="white" stroke-width="3"/>
<path d="M79.7183 38.4578V41.8169" stroke="white" stroke-width="3"/>
<path d="M79.7183 58.6128V61.9719" stroke="white" stroke-width="3"/>
</g>
<defs>
<clipPath id="clip0">
<rect width="134" height="134" fill="white"/>
</clipPath>
</defs>
</svg>

<svg width="134" height="134" fill="none" xmlns="http://www.w3.org/2000/svg"><g clip-path="url(#clip0)" stroke="#fff" stroke-width="3"><path d="M15 131.5H8.5l16.5-35v-52L35 18h7.5l9 26.5v52l-36.5 35z"/><path d="M25 97l34 34h7.5L52 97 25 70.5h27L25 44l26.5.5M24 98l27.5-27.5M52 45L25 69.5m30.5-22L73 65H55.5m-36-17.5L2 65h17.5"/><path d="M55.5 75.5L73 93H55.5m-36-17.5L2 93h17.5M65 93v4.5m0-32V70M5 65.5V70m0 22.5V97m66-4v4.5m0-32V70m-60-4.5V70m0 22.5V97m71.704-9.275h-4.852L90.17 61.6V22.782L97.634 3h5.598l6.719 19.782v38.817L82.704 87.725z"/><path d="M90.17 61.972l25.379 25.38h5.599l-10.824-25.38L90.169 42.19h20.155L90.169 22.408l19.782.374M89.422 62.718l20.529-20.528m.373-19.035L90.169 41.444m22.768-16.423L126 38.085h-13.063M86.063 25.021L73 38.085h13.063"/><path d="M112.937 45.923L126 58.986h-13.063M86.063 45.923L73 58.986h13.063m33.965 0v3.359m0-23.887v3.359M75.24 38.458v3.359m0 16.796v3.359m49.267-2.986v3.359m0-23.887v3.359m-44.789-3.359v3.359m0 16.796v3.359"/></g><defs><clipPath id="clip0"><path fill="#fff" d="M0 0h134v134H0z"/></clipPath></defs></svg>
